packages/kaspersky-hexa-ui-icons/src/iconsSVGs/28x20/FlagAd.svg

<svg width="28" height="20" viewBox="0 0 28 20" fill="none" xmlns="http://www.w3.org/2000/svg">
<g clip-path="url(#clip0_5138_302)">
<path d="M0 2C0 0.895431 0.895431 0 2 0H26C27.1046 0 28 0.895431 28 2V18C28 19.1046 27.1046 20 26 20H2C0.895431 20 0 19.1046 0 18V2Z" fill="white"/>
<mask id="mask0_5138_302" style="mask-type:luminance" maskUnits="userSpaceOnUse" x="0" y="0" width="28" height="20">
<path d="M0 2C0 0.895431 0.895431 0 2 0H26C27.1046 0 28 0.895431 28 2V18C28 19.1046 27.1046 20 26 20H2C0.895431 20 0 19.1046 0 18V2Z" fill="white"/>
</mask>
<g mask="url(#mask0_5138_302)">
<rect width="28" height="20" fill="#1537D1"/>
<rect x="13.3333" width="14.6667" height="20" fill="#EA3058"/>
<path fill-rule="evenodd" clip-rule="evenodd" d="M9.33334 20H18.6667V0H9.33334V20Z" fill="#FFCF3C"/>
<path fill-rule="evenodd" clip-rule="evenodd" d="M12.6667 8.66665H14V9.33331H12.6667V8.66665Z" fill="#FFEDB1"/>
<path d="M15.2753 8C15.6652 8 15.9716 8.33313 15.9394 8.72168L15.7685 10.7773C15.7109 11.4684 15.1328 12 14.4394 12H13.5605C12.867 12 12.2889 11.4684 12.2314 10.7773L12.0605 8.72168C12.0283 8.33314 12.3346 8 12.7245 8H15.2753ZM12.8954 10.7217C12.9242 11.0672 13.2137 11.333 13.5605 11.333H14.4394C14.7861 11.333 15.0756 11.0672 15.1044 10.7217L15.2753 8.66699H12.7245L12.8954 10.7217Z" fill="#D32E28"/>
<path fill-rule="evenodd" clip-rule="evenodd" d="M12.6667 9.33333H15.3333V10H14.6667H13.3333H12.6667V9.33333Z" fill="#D32E28"/>
</g>
</g>
<defs>
<clipPath id="clip0_5138_302">
<rect width="28" height="20" fill="white"/>
</clipPath>
</defs>
</svg>

<svg xmlns="http://www.w3.org/2000/svg" width="28" height="20" fill="none" viewBox="0 0 28 20"><g clip-path="url(#a)"><path fill="#fff" d="M0 2C0 .8954.8954 0 2 0h24c1.1046 0 2 .8954 2 2v16c0 1.1046-.8954 2-2 2H2c-1.1046 0-2-.8954-2-2z"/><mask id="b" width="28" height="20" x="0" y="0" maskUnits="userSpaceOnUse" style="mask-type:luminance"><path fill="#fff" d="M0 2C0 .8954.8954 0 2 0h24c1.1046 0 2 .8954 2 2v16c0 1.1046-.8954 2-2 2H2c-1.1046 0-2-.8954-2-2z"/></mask><g mask="url(#b)"><path fill="#1537d1" d="M0 0h28v20H0z"/><path fill="#ea3058" d="M13.3333 0H28v20H13.3333z"/><path fill="#ffcf3c" fill-rule="evenodd" d="M9.3333 20h9.3334V0H9.3333z" clip-rule="evenodd"/><path fill="#ffedb1" fill-rule="evenodd" d="M12.6667 8.6667H14v.6666h-1.3333z" clip-rule="evenodd"/><path fill="#d32e28" d="M15.2753 8c.3899 0 .6963.3331.6641.7217l-.1709 2.0556C15.7109 11.4684 15.1328 12 14.4394 12h-.8789c-.6935 0-1.2716-.5316-1.3291-1.2227l-.1709-2.0556c-.0322-.3886.2741-.7217.664-.7217zm-2.3799 2.7217a.6673.6673 0 0 0 .6651.6113h.8789a.6673.6673 0 0 0 .665-.6113l.1709-2.0547h-2.5508z"/><path fill="#d32e28" fill-rule="evenodd" d="M12.6667 9.3333h2.6666V10h-2.6666z" clip-rule="evenodd"/></g></g><defs><clipPath id="a"><path fill="#fff" d="M0 0h28v20H0z"/></clipPath></defs></svg>
